X:1
T:Uppsala, 87.87 D
T:Uppsala, 87.87 D
T:Gunnar Wennerberg (1817-1901)
T:Public Domain Courtesy of the Cyber Hymnal™
C:Gunnar Wennerberg (1817-1901)
Z:Public Domain
Z:Courtesy of the Cyber Hymnal™
%%score ( 1 2 ) ( 3 4 )
L:1/8
Q:1/4=130
M:3/4
K:F
V:1 treble 
V:2 treble 
V:3 bass 
V:4 bass 
V:1
 [FA]4 [CF]2 | [DG]4 [CE]2 | (F2 G2) [FA]2 | [Gc]4 [GB]2 | [FA]4 [Fc]2 | c2 B2 [DG]2 | %6
 [CF]4 [EG]2 | [FA]4 z2 | [FA]4 [CF]2 | [DG]4 [CE]2 | (F2 G2) [FA]2 | [Gc]4 [GB]2 | [FA]4 [Fc]2 | %13
 c2 B2 [DG]2 | [FA]4 [EG]2 | [CF]4 z2 | [EB]4 [EG]2 | [FA]4 [Fc]2 | [Fd]4 [Fc]2 | (c2 B2) [FA]2 | %20
 [DB]4 [EG]2 | [FA]4 [Fc]2 | [G=B]4 [Fd]2 | (c4 B2) | [FA]4 [CF]2 | [DG]4 [CE]2 | (F2 G2) [FA]2 | %27
 [Gc]4 [GB]2 | [FA]4 [Fc]2 | (c2 B2) [DG]2 | [CF]4 [CE]2 | [CF]4 z2 |] %32
V:2
 x6 | x6 | C4 x2 | x6 | x6 | F4 x2 | x6 | x6 | x6 | x6 | C4 x2 | x6 | x6 | F4 x2 | x6 | x6 | x6 | %17
 x6 | x6 | G4 x2 | x6 | x6 | x6 | E6 | x6 | x6 | C4 x2 | x6 | x6 | F4 x2 | x6 | x6 |] %32
V:3
 [F,C]4 [F,A,]2 | [B,,B,]4 [C,G,]2 | (A,2 B,2) [F,C]2 | [E,C]4 [E,C]2 | C4 [_E,A,]2 | %5
 [D,B,]4 [B,,B,]2 | [C,A,]4 [C,C]2 | [F,C]4 z2 | [F,C]4 [F,A,]2 | [B,,B,]4 [C,G,]2 | %10
 (A,2 B,2) [F,C]2 | [E,C]4 [E,C]2 | C4 [_E,A,]2 | [D,B,]4 [B,,B,]2 | (F,2 C2) [C,B,]2 | %15
 [F,A,]4 z2 | [C,C]4 [C,C]2 | [F,C]4 [A,C]2 | B,4 [A,C]2 | [E,C]4 [F,C]2 | [G,B,]4 [C,C]2 | %21
 [F,C]4 [A,C]2 | [G,D]4 [G,=B,]2 | [C,C]6 | [F,C]4 [F,A,]2 | [B,,B,]4 [C,G,]2 | (A,2 B,2) [F,C]2 | %27
 [E,C]4 [E,C]2 | C4 [_E,A,]2 | [D,B,]4 [B,,B,]2 | [C,A,]4 [C,G,]2 | [F,,A,]4 z2 |] %32
V:4
 x6 | x6 | F,4 x2 | x6 | F,2 _E,2 x2 | x6 | x6 | x6 | x6 | x6 | F,4 x2 | x6 | (F,2 _E,2) x2 | x6 | %14
 C,4 x2 | x6 | x6 | x6 | B,4 x2 | x6 | x6 | x6 | x6 | x6 | x6 | x6 | F,4 x2 | x6 | (F,2 _E,2) x2 | %29
 x6 | x6 | x6 |] %32

